icons/filled/align-box-center-middle.svg

<svg xmlns="http://www.w3.org/2000/svg" width="24" height="24" viewBox="0 0 24 24" fill="currentColor"><path d="M19 2a3 3 0 0 1 2.995 2.824l.005 .176v14a3 3 0 0 1 -2.824 2.995l-.176 .005h-14a3 3 0 0 1 -2.993 -2.802l-.007 -.198v-14a3 3 0 0 1 2.824 -2.995l.176 -.005h14zm-6 12h-2l-.117 .007a1 1 0 0 0 0 1.986l.117 .007h2l.117 -.007a1 1 0 0 0 0 -1.986l-.117 -.007zm2 -3h-6l-.117 .007a1 1 0 0 0 0 1.986l.117 .007h6l.117 -.007a1 1 0 0 0 0 -1.986l-.117 -.007zm-1 -3h-4l-.117 .007a1 1 0 0 0 0 1.986l.117 .007h4l.117 -.007a1 1 0 0 0 0 -1.986l-.117 -.007z"/></svg>

<svg xmlns="http://www.w3.org/2000/svg" width="24" height="24" fill="currentColor"><path d="M19 2a3 3 0 0 1 2.995 2.824L22 5v14a3 3 0 0 1-2.824 2.995L19 22H5a3 3 0 0 1-2.993-2.802L2 19V5a3 3 0 0 1 2.824-2.995L5 2zm-6 12h-2l-.117.007a1 1 0 0 0 0 1.986L11 16h2l.117-.007a1 1 0 0 0 0-1.986zm2-3H9l-.117.007a1 1 0 0 0 0 1.986L9 13h6l.117-.007a1 1 0 0 0 0-1.986zm-1-3h-4l-.117.007a1 1 0 0 0 0 1.986L10 10h4l.117-.007a1 1 0 0 0 0-1.986z"/></svg>
